Costumes/5-glow.svg

<?xml version="1.0" encoding="UTF-8" standalone="no"?>
<svg
   version="1.1"
   width="61.204334"
   height="77.68"
   id="svg8"
   sodipodi:docname="5-glow.svg"
   xmlns:inkscape="http://www.inkscape.org/namespaces/inkscape"
   xmlns:sodipodi="http://sodipodi.sourceforge.net/DTD/sodipodi-0.dtd"
   xmlns="http://www.w3.org/2000/svg"
   xmlns:svg="http://www.w3.org/2000/svg">
  <defs
     id="defs12" />
  <sodipodi:namedview
     id="namedview10"
     pagecolor="#ffffff"
     bordercolor="#000000"
     borderopacity="0.25"
     inkscape:showpageshadow="2"
     inkscape:pageopacity="0.0"
     inkscape:pagecheckerboard="0"
     inkscape:deskcolor="#d1d1d1" />
  <!-- Exported by Scratch - http://scratch.mit.edu/ -->
  <g
     id="ID0.36619111243635416"
     transform="translate(3.3613955e-4)">
    <g
       id="ID0.07933041453361511">
      <g
         id="ID0.29609810607507825">
        <path
           id="ID0.8891064776107669"
           fill="#00cccc"
           d="m 61.204,43.46 v 5.45 c 0,2.29 -0.56,4.97 -2,9.55 -0.13,0.4 -0.28,0.79 -0.45,1.17 -0.69,1.56 -1.77,3.14 -4.27,6.27 -0.07,0.08 -0.14,0.17 -0.21,0.25 -6.42,7.54 -14.67,11.53 -23.86,11.53 -4.41,0 -8.61,-0.98 -12.49,-2.92 -1.06,-0.53 -2.02,-1.23 -2.86,-2.07 -0.27,-0.27 -1.13,-1.06 -3.22,-2.61 -1.72,-1.26 -3.01,-2.98 -3.76,-4.93 -0.53,-0.72 -1.08,-1.44 -1.66,-2.16 -1.17,-1.47 -1.95,-3.21 -2.26,-5.05 -0.07,-0.25 -0.25,-0.79 -0.63,-1.77 -1.17,-2.95 -1.8,-4.98 -1.8,-7.26 0,-2.68 0.83,-5.26 2.36,-7.46 -0.46,-0.7 -0.88,-1.45 -1.25,-2.25 -0.82,-1.75 -1.15,-3.68 -0.98,-5.61 0,-0.04 0.03,-0.34 0.04,-1.11 -0.18,-1.3 -0.39,-3 -0.63,-5.09 -0.23,-2.04 -0.61,-5.27 -1.12,-9.71 -0.55,-3.98 0.38,-7.82 2.63,-10.81 2.95,-4.01 7.83,-6.08 14.43,-6.08 1.07,0 2.37,0.05 3.97,0.16 0.77,0.05 1.35,0.08 1.72,0.1 2.42,-0.12 5.54,-0.2 9.49,-0.26 0.16,-0.01 0.62,-0.07 1.6,-0.23 2.21,-0.39 3.82,-0.56 5.21,-0.56 7.24,0 12.85,4.6 13.94,11.46 0.12,0.74 0.16,1.49 0.13,2.24 -0.02,0.38 -0.04,1.56 0.14,4.43 0.29,2.09 0.46,4.69 -0.16,7.33 3.1,3.05 5.35,6.8 6.62,11.11 1.01,3.54 1.33,5.19 1.33,6.89 z" />
      </g>
    </g>
    <g
       id="ID0.2466803784482181">
      <path
         id="ID0.4525053952820599"
         fill="#ffffff"
         d="m 50.202,48.909 c 0,0.998 -0.499,3.079 -1.495,6.245 -0.235,0.528 -1.174,1.819 -2.815,3.871 -4.34,5.102 -9.5,7.652 -15.481,7.652 -2.697,0 -5.22,-0.587 -7.564,-1.759 -0.997,-0.998 -2.493,-2.229 -4.485,-3.695 -0.06,-0.585 -0.499,-1.407 -1.319,-2.463 -0.646,-0.879 -1.32,-1.759 -2.023,-2.639 -0.06,-0.645 -0.47,-1.964 -1.231,-3.958 -0.704,-1.76 -1.056,-2.844 -1.056,-3.255 0,-0.703 0.365,-1.333 1.1,-1.891 0.732,-0.557 1.509,-0.836 2.331,-0.836 1.113,0 1.876,0.527 2.287,1.583 0,0.587 0.028,1.496 0.088,2.728 0.352,1.701 1.172,3.577 2.463,5.629 1.465,2.287 2.96,3.842 4.485,4.662 1.76,0.88 3.576,1.319 5.454,1.319 3.283,0 6.215,-1.265 8.796,-3.793 1.407,-1.353 2.229,-2.178 2.463,-2.472 0.645,-0.705 1.201,-1.704 1.672,-2.999 -0.118,-0.47 -0.06,-0.823 0.176,-1.06 0.527,-0.411 0.732,-1.44 0.615,-3.088 0,-0.233 0.044,-0.616 0.132,-1.146 0.088,-0.529 0.133,-0.941 0.133,-1.235 0,-0.058 -0.207,-1.322 -0.616,-3.793 -0.176,-0.177 -0.352,-0.383 -0.527,-0.619 -0.353,-3.175 -2.376,-5.557 -6.07,-7.146 -2.873,-1.234 -5.835,-1.765 -8.884,-1.589 -0.938,0.061 -2.186,0.211 -3.738,0.45 -1.555,0.24 -2.683,0.601 -3.387,1.08 -2.581,1.562 -4.457,2.341 -5.629,2.341 -1.407,0 -2.493,-0.821 -3.255,-2.463 0.058,-0.646 0.088,-1.584 0.088,-2.815 -0.176,-1.231 -0.411,-3.107 -0.703,-5.629 -0.235,-2.053 -0.616,-5.336 -1.144,-9.852 -0.176,-1.173 0,-2.111 0.527,-2.815 0.82,-1.113 2.696,-1.671 5.63,-1.671 0.82,0 1.904,0.044 3.254,0.132 1.349,0.088 2.199,0.132 2.551,0.132 2.345,-0.116 5.542,-0.204 9.588,-0.264 0.645,0 1.729,-0.132 3.255,-0.396 1.524,-0.265 2.639,-0.396 3.343,-0.396 1.817,0 2.844,0.734 3.078,2.199 -0.059,1.291 0,3.313 0.177,6.069 0.352,2.287 0.264,3.782 -0.265,4.486 -1.173,0.527 -2.142,0.791 -2.902,0.791 -1.35,0 -2.259,-0.615 -2.728,-1.847 -0.294,-0.762 -0.439,-1.76 -0.439,-2.991 0.058,-1.583 0.029,-2.608 -0.088,-3.078 -1.759,-0.058 -4.398,0.03 -7.916,0.264 -1.408,0.118 -4.722,0.47 -9.94,1.056 -0.176,0.118 -0.382,0.264 -0.615,0.439 -0.118,0.88 0,2.815 0.352,5.806 0.41,3.167 0.616,5.132 0.616,5.894 0.058,0 0.879,-0.264 2.463,-0.792 0.761,-0.116 1.876,-0.293 3.342,-0.527 1.936,-0.469 3.987,-0.704 6.158,-0.704 4.339,0 8.121,0.851 11.347,2.551 3.812,2.054 6.303,5.073 7.477,9.061 0.586,2.053 0.88,3.313 0.88,3.782 v 5.454 z" />
    </g>
  </g>
</svg>

<svg version="1.1" width="62" height="78" xmlns="http://www.w3.org/2000/svg" xmlns:xlink="http://www.w3.org/1999/xlink">
  <!-- Exported by Scratch - http://scratch.mit.edu/ -->
  <g id="ID0.36619111243635416">
    <g id="ID0.07933041453361511">
      <g id="ID0.29609810607507825">
        <path id="ID0.8891064776107669" fill="#00CCCC" d="M 61.204 43.460 L 61.204 48.910 C 61.204 51.200 60.644 53.880 59.204 58.460 C 59.074 58.860 58.924 59.250 58.754 59.630 C 58.064 61.190 56.984 62.770 54.484 65.900 C 54.414 65.980 54.344 66.070 54.274 66.150 C 47.854 73.690 39.604 77.680 30.414 77.680 C 26.004 77.680 21.804 76.700 17.924 74.760 C 16.864 74.230 15.904 73.530 15.064 72.690 C 14.794 72.420 13.934 71.630 11.844 70.080 C 10.124 68.820 8.834 67.100 8.084 65.150 C 7.554 64.430 7.004 63.710 6.424 62.990 C 5.254 61.520 4.474 59.780 4.164 57.940 C 4.094 57.690 3.914 57.150 3.534 56.170 C 2.364 53.220 1.734 51.190 1.734 48.910 C 1.734 46.230 2.564 43.650 4.094 41.450 C 3.634 40.750 3.214 40 2.844 39.200 C 2.024 37.450 1.694 35.520 1.864 33.590 C 1.864 33.550 1.894 33.250 1.904 32.480 C 1.724 31.180 1.514 29.480 1.274 27.390 C 1.044 25.350 0.664 22.120 0.154 17.680 C -0.396 13.700 0.534 9.860 2.784 6.870 C 5.734 2.860 10.614 0.790 17.214 0.790 C 18.284 0.790 19.584 0.840 21.184 0.950 C 21.954 1 22.534 1.030 22.904 1.050 C 25.324 0.930 28.444 0.850 32.394 0.790 C 32.554 0.780 33.014 0.720 33.994 0.560 C 36.204 0.170 37.814 0 39.204 0 C 46.444 0 52.054 4.600 53.144 11.460 C 53.264 12.200 53.304 12.950 53.274 13.700 C 53.254 14.080 53.234 15.260 53.414 18.130 C 53.704 20.220 53.874 22.820 53.254 25.460 C 56.354 28.510 58.604 32.260 59.874 36.570 C 60.884 40.110 61.204 41.760 61.204 43.460 Z "/>
      </g>
    </g>
    <g id="ID0.2466803784482181">
      <path id="ID0.4525053952820599" fill="#FFFFFF" d="M 50.202 48.909 C 50.202 49.907 49.703 51.988 48.707 55.154 C 48.472 55.682 47.533 56.973 45.892 59.025 C 41.552 64.127 36.392 66.677 30.411 66.677 C 27.714 66.677 25.191 66.090 22.847 64.918 C 21.850 63.920 20.354 62.689 18.362 61.223 C 18.302 60.638 17.863 59.816 17.043 58.760 C 16.397 57.881 15.723 57.001 15.020 56.121 C 14.960 55.476 14.550 54.157 13.789 52.163 C 13.085 50.403 12.733 49.319 12.733 48.908 C 12.733 48.205 13.098 47.575 13.833 47.017 C 14.565 46.460 15.342 46.181 16.164 46.181 C 17.277 46.181 18.040 46.708 18.451 47.764 C 18.451 48.351 18.479 49.260 18.539 50.492 C 18.891 52.193 19.711 54.069 21.002 56.121 C 22.467 58.408 23.962 59.963 25.487 60.783 C 27.247 61.663 29.063 62.102 30.941 62.102 C 34.224 62.102 37.156 60.837 39.737 58.309 C 41.144 56.956 41.966 56.131 42.200 55.837 C 42.845 55.132 43.401 54.133 43.872 52.838 C 43.754 52.368 43.812 52.015 44.048 51.778 C 44.575 51.367 44.780 50.338 44.663 48.690 C 44.663 48.457 44.707 48.074 44.795 47.544 C 44.883 47.015 44.928 46.603 44.928 46.309 C 44.928 46.251 44.721 44.987 44.312 42.516 C 44.136 42.339 43.960 42.133 43.785 41.897 C 43.432 38.722 41.409 36.340 37.715 34.751 C 34.842 33.517 31.880 32.986 28.831 33.162 C 27.893 33.223 26.645 33.373 25.093 33.612 C 23.538 33.852 22.410 34.213 21.706 34.692 C 19.125 36.254 17.249 37.033 16.077 37.033 C 14.670 37.033 13.584 36.212 12.822 34.570 C 12.880 33.924 12.910 32.986 12.910 31.755 C 12.734 30.524 12.499 28.648 12.207 26.126 C 11.972 24.073 11.591 20.790 11.063 16.274 C 10.887 15.101 11.063 14.163 11.590 13.459 C 12.410 12.346 14.286 11.788 17.220 11.788 C 18.040 11.788 19.124 11.832 20.474 11.920 C 21.823 12.008 22.673 12.052 23.025 12.052 C 25.370 11.936 28.567 11.848 32.613 11.788 C 33.258 11.788 34.342 11.656 35.868 11.392 C 37.392 11.127 38.507 10.996 39.211 10.996 C 41.028 10.996 42.055 11.730 42.289 13.195 C 42.230 14.486 42.289 16.508 42.466 19.264 C 42.818 21.551 42.730 23.046 42.201 23.750 C 41.028 24.277 40.059 24.541 39.299 24.541 C 37.949 24.541 37.040 23.926 36.571 22.694 C 36.277 21.932 36.132 20.934 36.132 19.703 C 36.190 18.120 36.161 17.095 36.044 16.625 C 34.285 16.567 31.646 16.655 28.128 16.889 C 26.720 17.007 23.406 17.359 18.188 17.945 C 18.012 18.063 17.806 18.209 17.573 18.384 C 17.455 19.264 17.573 21.199 17.925 24.190 C 18.335 27.357 18.541 29.322 18.541 30.084 C 18.599 30.084 19.420 29.820 21.004 29.292 C 21.765 29.176 22.880 28.999 24.346 28.765 C 26.282 28.296 28.333 28.061 30.504 28.061 C 34.843 28.061 38.625 28.912 41.851 30.612 C 45.663 32.666 48.154 35.685 49.328 39.673 C 49.914 41.726 50.208 42.986 50.208 43.455 L 50.208 48.909 Z "/>
    </g>
  </g>
</svg>
